src/assets/world.svg

<svg fill="none" height="45" viewBox="0 0 45 45" width="45" xmlns="http://www.w3.org/2000/svg"><path d="m43.125 22.5c0 11.3909-9.2341 20.625-20.625 20.625m20.625-20.625c0-11.3909-9.2341-20.625-20.625-20.625m20.625 20.625h-41.25m20.625 20.625c-11.3909 0-20.625-9.2341-20.625-20.625m20.625 20.625s-7.5-4.125-7.5-20.625 7.5-20.625 7.5-20.625m0 41.25s7.5-4.125 7.5-20.625-7.5-20.625-7.5-20.625m-20.625 20.625c0-11.3909 9.2341-20.625 20.625-20.625" stroke="#fcfcfc" stroke-width="1.74933"/></svg>

<svg width="45" height="45" viewBox="0 0 45 45" fill="none" xmlns="http://www.w3.org/2000/svg">
<path d="M43.125 22.5C43.125 33.8909 33.8909 43.125 22.5 43.125M43.125 22.5C43.125 11.1091 33.8909 1.875 22.5 1.875M43.125 22.5H1.875M22.5 43.125C11.1091 43.125 1.875 33.8909 1.875 22.5M22.5 43.125C22.5 43.125 15 39 15 22.5C15 6 22.5 1.875 22.5 1.875M22.5 43.125C22.5 43.125 30 39 30 22.5C30 6 22.5 1.875 22.5 1.875M1.875 22.5C1.875 11.1091 11.1091 1.875 22.5 1.875" stroke="#FCFCFC" stroke-width="1.74933"/>
</svg>
